X:10121
T: the Lady's Breist Knot
R: reel, strathspey
B: RSCDS 10-12
Z: 1997 by John Chambers <jc:trillian.mit.edu>
N: Adaped from melody of the song by John Sinclair, 1st half of 19th century.
M: C|
L: 1/8
%--------------------
K: A
|: e \
| "A"ABce "D"defa | "A"ecAc "E7"B2e2 \
| "A7"ABce "D"defa | "E7"edBe "A"c2A :|
|| e \
| "A"AG"D"AF "A"EcAB | "A"AG"D"AF "A"EcAB \
| "A"cd"E"cB "F#m"cagf | "B7"^dBcd "E7"e2FG |
| "A"ABce "D"defa | "A"ecAc "E7"B2eE \
| "A7"ABce "D"defa | "E7"ecBe "A"c2A |]
